icons/male_sex_worker_fill.svg

<svg width="48" height="48" viewBox="0 0 48 48" fill="none" xmlns="http://www.w3.org/2000/svg">
<path d="M14.5 13C16.433 13 18 11.433 18 9.5C18 7.567 16.433 6 14.5 6C12.567 6 11 7.567 11 9.5C11 11.433 12.567 13 14.5 13Z" fill="black"/>
<path d="M19.6486 20C19.6984 20.3524 19.7424 20.7287 19.7806 21.1216C19.9992 23.3666 20 25.8009 20 26.4998C20 27.3282 20.6716 27.9998 21.5 27.9998C22.3284 27.9998 23 27.3282 23 26.4998V26.493C23 25.7857 23 23.2288 22.7665 20.8308C22.6508 19.6418 22.4698 18.4015 22.1696 17.4252C22.0223 16.9462 21.8147 16.4227 21.499 15.9892C21.1824 15.5547 20.59 15 19.6886 15H9.31135C8.41 15 7.81755 15.5547 7.50104 15.9892C7.18529 16.4227 6.9777 16.9462 6.83042 17.4252C6.53022 18.4015 6.34925 19.6418 6.23348 20.8308C5.99999 23.2288 6 25.7857 6 26.493V26.4998C6 27.3282 6.67157 27.9998 7.5 27.9998C8.32843 27.9998 9 27.3282 9 26.4998C9 25.8009 9.00076 23.3666 9.21936 21.1216C9.25761 20.7287 9.30161 20.3524 9.35144 20H10L9.99999 40.4999C9.99999 41.305 10.6356 41.9666 11.4401 41.9987C12.2446 42.0308 12.931 41.4221 12.9952 40.6195L13.8448 30H15.1552L16.0048 40.6196C16.069 41.4222 16.7554 42.0309 17.5599 41.9988C18.3644 41.9667 19 41.3051 19 40.5V20H19.6486Z" fill="black"/>
<path fill-rule="evenodd" clip-rule="evenodd" d="M27 12C27 9.79086 28.7909 8 31 8H32V6H34V8H35C37.2091 8 39 9.79086 39 12H37C37 10.8954 36.1046 10 35 10H34V14H35C37.2091 14 39 15.7909 39 18C39 20.2091 37.2091 22 35 22H34V24H32V22H31C28.7909 22 27 20.2091 27 18H29C29 19.1046 29.8954 20 31 20H32V16H31C28.7909 16 27 14.2091 27 12ZM29 12C29 13.1046 29.8954 14 31 14H32V10H31C29.8954 10 29 10.8954 29 12ZM37 18C37 16.8954 36.1046 16 35 16H34V20H35C36.1046 20 37 19.1046 37 18Z" fill="black"/>
<path fill-rule="evenodd" clip-rule="evenodd" d="M24 35C24 33.6938 24.8348 32.5825 26 32.1707V26H28V27L38 27V26H40V32.1707C41.1652 32.5825 42 33.6938 42 35V42H40V39H26V42H24V35ZM34 29L32 29V32H34V29ZM27 34C26.4477 34 26 34.4477 26 35V37H40V35C40 34.4477 39.5523 34 39 34H27ZM36 29V32H38V29H36ZM30 29H28V32H30V29Z" fill="black"/>
</svg>

<svg
  xmlns="http://www.w3.org/2000/svg"
  width="24"
  height="24"
  viewBox="0 0 24 24"
  fill="none"
  stroke="currentColor"
  stroke-width="2"
  stroke-linecap="round"
  stroke-linejoin="round"
>
  <path d="M14.5 13a3.5 3.5 0 1 0 0-7 3.5 3.5 0 0 0 0 7" />
  <path d="M19.649 20c.05.352.093.729.132 1.122.218 2.245.219 4.679.219 5.378a1.5 1.5 0 0 0 3 0v-.007c0-.707 0-3.264-.233-5.662-.116-1.19-.297-2.43-.597-3.406-.148-.479-.355-1.002-.671-1.436S20.59 15 19.689 15H9.31c-.901 0-1.493.555-1.81.99-.316.433-.523.956-.67 1.435-.3.976-.482 2.217-.598 3.406C6 23.229 6 25.786 6 26.493v.007a1.5 1.5 0 0 0 3 0c0-.7 0-3.133.22-5.378.038-.393.082-.77.131-1.122H10v20.5a1.5 1.5 0 0 0 2.995.12l.85-10.62h1.31l.85 10.62A1.5 1.5 0 0 0 19 40.5V20z" />
  <path
    fill-rule="evenodd"
    d="M27 12a4 4 0 0 1 4-4h1V6h2v2h1a4 4 0 0 1 4 4h-2a2 2 0 0 0-2-2h-1v4h1a4 4 0 0 1 0 8h-1v2h-2v-2h-1a4 4 0 0 1-4-4h2a2 2 0 0 0 2 2h1v-4h-1a4 4 0 0 1-4-4m2 0a2 2 0 0 0 2 2h1v-4h-1a2 2 0 0 0-2 2m8 6a2 2 0 0 0-2-2h-1v4h1a2 2 0 0 0 2-2"
    clip-rule="evenodd"
  />
  <path
    fill-rule="evenodd"
    d="M24 35c0-1.306.835-2.417 2-2.83V26h2v1h10v-1h2v6.17c1.165.413 2 1.524 2 2.83v7h-2v-3H26v3h-2zm10-6h-2v3h2zm-7 5a1 1 0 0 0-1 1v2h14v-2a1 1 0 0 0-1-1zm9-5v3h2v-3zm-6 0h-2v3h2z"
    clip-rule="evenodd"
  />
</svg>
